icons/Sleet Cloudy Day--1504964.svg

<svg enable-background="new 0 0 16 16" viewBox="0 0 16 16" xmlns="http://www.w3.org/2000/svg"><path d="m13 11h-9.5c-1.93 0-3.5-1.57-3.5-3.5 0-1.902 1.525-3.454 3.416-3.499.787-1.81 2.583-3.001 4.584-3.001 2.409 0 4.436 1.688 4.902 4.001 1.748-.036 3.098 1.312 3.098 2.999 0 1.654-1.346 3-3 3zm-9.5-6c-1.378 0-2.5 1.122-2.5 2.5 0 1.379 1.122 2.5 2.5 2.5h9.5c1.103 0 2-.897 2-2s-.897-2-2-2c-.147 0-.297.017-.428.042-.137.024-.28-.008-.392-.091-.112-.084-.184-.211-.197-.35-.208-2.053-1.92-3.601-3.983-3.601-1.703 0-3.221 1.079-3.777 2.684-.085.245-.341.386-.594.321-.023-.005-.089-.005-.129-.005z"/><path d="m13 6c-.228 0-.448-.025-.654-.073-.27-.063-.436-.333-.372-.602.062-.268.331-.434.601-.372.131.031.275.047.425.047 1.103 0 2-.897 2-2s-.897-2-2-2c-.891 0-1.685.599-1.93 1.457-.076.265-.351.416-.618.344-.265-.076-.419-.353-.343-.618.367-1.286 1.556-2.183 2.891-2.183 1.654 0 3 1.346 3 3s-1.346 3-3 3z"/><path d="m8 16c-.827 0-1.5-.673-1.5-1.5 0-.639.761-1.811 1.088-2.284.188-.27.637-.27.823 0 .327.473 1.089 1.645 1.089 2.284 0 .827-.673 1.5-1.5 1.5zm0-2.573c-.288.485-.496.921-.5 1.074 0 .274.224.499.5.499.275 0 .5-.225.5-.5-.005-.153-.212-.588-.5-1.073z"/><path d="m3.5 16c-.276 0-.5-.224-.5-.5v-3c0-.276.224-.5.5-.5s.5.224.5.5v3c0 .276-.224.5-.5.5z"/><path d="m4.798 15.25c-.085 0-.171-.021-.25-.067l-2.598-1.5c-.238-.138-.32-.444-.182-.683s.444-.323.683-.183l2.598 1.5c.239.138.321.444.183.683-.093.16-.261.25-.434.25z"/><path d="m2.202 15.25c-.173 0-.341-.09-.434-.25-.138-.239-.056-.545.183-.683l2.598-1.5c.238-.14.544-.056.683.183.138.239.056.545-.183.683l-2.598 1.5c-.078.046-.164.067-.249.067z"/><path d="m12.5 16c-.276 0-.5-.224-.5-.5v-3c0-.276.224-.5.5-.5s.5.224.5.5v3c0 .276-.224.5-.5.5z"/><path d="m13.799 15.25c-.085 0-.171-.021-.25-.067l-2.598-1.5c-.239-.138-.321-.443-.183-.683.138-.239.444-.32.683-.183l2.598 1.5c.239.138.321.443.183.683-.092.16-.261.25-.433.25z"/><path d="m11.201 15.25c-.172 0-.341-.09-.433-.25-.139-.239-.057-.545.183-.683l2.598-1.5c.238-.139.545-.058.683.183.139.239.057.545-.183.683l-2.598 1.5c-.079.046-.165.067-.25.067z"/></svg>

<?xml version="1.0" encoding="utf-8"?>
<!DOCTYPE svg PUBLIC "-//W3C//DTD SVG 1.0//EN" "http://www.w3.org/TR/2001/REC-SVG-20010904/DTD/svg10.dtd">
<svg    fill="#000000" xmlns="http://www.w3.org/2000/svg" xmlns:xlink="http://www.w3.org/1999/xlink" version="1.1" x="0px" y="0px" viewBox="0 0 16 16" style="enable-background:new 0 0 16 16;" xml:space="preserve"><path d="M13,11H3.5C1.57,11,0,9.43,0,7.5c0-1.902,1.525-3.454,3.416-3.499C4.203,2.191,5.999,1,8,1c2.409,0,4.436,1.688,4.902,4.001  C14.65,4.965,16,6.313,16,8C16,9.654,14.654,11,13,11z M3.5,5C2.122,5,1,6.122,1,7.5C1,8.879,2.122,10,3.5,10H13  c1.103,0,2-0.897,2-2c0-1.103-0.897-2-2-2c-0.147,0-0.297,0.017-0.428,0.042c-0.137,0.024-0.28-0.008-0.392-0.091  c-0.112-0.084-0.184-0.211-0.197-0.35C11.775,3.548,10.063,2,8,2C6.297,2,4.779,3.079,4.223,4.684  C4.138,4.929,3.882,5.07,3.629,5.005C3.606,5,3.54,5,3.5,5z"></path><path d="M13,6c-0.228,0-0.448-0.025-0.654-0.073c-0.27-0.063-0.436-0.333-0.372-0.602c0.062-0.268,0.331-0.434,0.601-0.372  C12.706,4.984,12.85,5,13,5c1.103,0,2-0.897,2-2s-0.897-2-2-2c-0.891,0-1.685,0.599-1.93,1.457  c-0.076,0.265-0.351,0.416-0.618,0.344c-0.265-0.076-0.419-0.353-0.343-0.618C10.476,0.897,11.665,0,13,0c1.654,0,3,1.346,3,3  S14.654,6,13,6z"></path><path d="M8,16c-0.827,0-1.5-0.673-1.5-1.5c0-0.639,0.761-1.811,1.088-2.284c0.188-0.27,0.637-0.27,0.823,0  C8.738,12.689,9.5,13.861,9.5,14.5C9.5,15.327,8.827,16,8,16z M8,13.427c-0.288,0.485-0.496,0.921-0.5,1.074  C7.5,14.775,7.724,15,8,15c0.275,0,0.5-0.225,0.5-0.5C8.495,14.347,8.288,13.912,8,13.427z"></path><path d="M3.5,16C3.224,16,3,15.776,3,15.5v-3C3,12.224,3.224,12,3.5,12S4,12.224,4,12.5v3C4,15.776,3.776,16,3.5,16z"></path><path d="M4.798,15.25c-0.085,0-0.171-0.021-0.25-0.067l-2.598-1.5C1.712,13.545,1.63,13.239,1.768,13s0.444-0.323,0.683-0.183  l2.598,1.5C5.288,14.455,5.37,14.761,5.232,15C5.139,15.16,4.971,15.25,4.798,15.25z"></path><path d="M2.202,15.25c-0.173,0-0.341-0.09-0.434-0.25c-0.138-0.239-0.056-0.545,0.183-0.683l2.598-1.5  C4.787,12.677,5.093,12.761,5.232,13c0.138,0.239,0.056,0.545-0.183,0.683l-2.598,1.5C2.373,15.229,2.287,15.25,2.202,15.25z"></path><path d="M12.5,16c-0.276,0-0.5-0.224-0.5-0.5v-3c0-0.276,0.224-0.5,0.5-0.5s0.5,0.224,0.5,0.5v3C13,15.776,12.776,16,12.5,16z"></path><path d="M13.799,15.25c-0.085,0-0.171-0.021-0.25-0.067l-2.598-1.5c-0.239-0.138-0.321-0.443-0.183-0.683  c0.138-0.239,0.444-0.32,0.683-0.183l2.598,1.5c0.239,0.138,0.321,0.443,0.183,0.683C14.14,15.16,13.971,15.25,13.799,15.25z"></path><path d="M11.201,15.25c-0.172,0-0.341-0.09-0.433-0.25c-0.139-0.239-0.057-0.545,0.183-0.683l2.598-1.5  c0.238-0.139,0.545-0.058,0.683,0.183c0.139,0.239,0.057,0.545-0.183,0.683l-2.598,1.5C11.372,15.229,11.286,15.25,11.201,15.25z"></path></svg>
